%
(Header)
(Generated by gcodetools from Inkscape.)
(Using default header. To add your own header create file "header" in the output dir.)
M3
(Header end.)
G21 (All units in mm)

(Start cutting path id: path22)
(Change tool to Default tool)

G00 Z5.000000
G00 X183.696430 Y262.315476

G01 Z-0.125000 F100.0(Penetrate)
G01 X181.562920 Y240.549554 Z-0.125000 F400.000000
G01 X198.283650 Y226.452588 Z-0.125000
G01 X176.923740 Y221.755634 Z-0.125000
G01 X168.683720 Y201.497073 Z-0.125000
G01 X157.616070 Y220.360119 Z-0.125000
G01 X135.802730 Y221.936606 Z-0.125000
G01 X150.322460 Y238.291563 Z-0.125000
G01 X145.081100 Y259.524446 Z-0.125000
G01 X165.122430 Y250.769320 Z-0.125000
G01 X183.696430 Y262.315476 Z-0.125000
G00 Z5.000000

(End cutting path id: path22)


(Start cutting path id: path16)
(Change tool to Default tool)

G00 Z5.000000
G00 X102.053570 Y254.000000

G01 Z-0.125000 F100.0(Penetrate)
G01 X47.321165 Y217.864521 Z-0.125000 F400.000000
G01 X43.393122 Y283.331909 Z-0.125000
G01 X102.053570 Y254.000000 Z-0.125000
G00 Z5.000000

(End cutting path id: path16)


(Start cutting path id: path12)
(Change tool to Default tool)

G00 Z5.000000
G00 X164.041660 Y114.904771

G01 Z-0.125000 F100.0(Penetrate)
G02 X159.422428 Y84.180574 Z-0.125000 I-104.488526 J0.000000 F400.000000
G02 X147.103540 Y59.847250 Z-0.125000 I-76.958762 J23.675908
G02 X127.395377 Y42.549528 Z-0.125000 I-50.112268 J37.219310
G02 X106.211300 Y37.041680 Z-0.125000 I-21.184074 J37.984766
G02 X67.732796 Y56.393532 Z-0.125000 I0.000004 J47.930550
G02 X48.380947 Y114.904771 Z-0.125000 I78.779839 J58.511239
G02 X67.732796 Y173.416008 Z-0.125000 I98.131687 J-0.000002
G02 X106.211300 Y192.767860 Z-0.125000 I38.478508 J-28.578698
G02 X127.395377 Y187.260012 Z-0.125000 I0.000003 J-43.492614
G02 X147.103540 Y169.962290 Z-0.125000 I-30.404106 J-54.517032
G02 X159.422428 Y145.628966 Z-0.125000 I-64.639874 J-48.009232
G02 X164.041660 Y114.904769 Z-0.125000 I-99.869293 J-30.724197
G01 X164.041660 Y114.904770 Z-0.125000
G00 Z5.000000

(End cutting path id: path12)


(Footer)
M5
G00 X0.0000 Y0.0000
M2
(Using default footer. To add your own footer create file "footer" in the output dir.)
(end)
%